X:1
T:Happy New Year!
T:Happy New Year!
T:Isaac Hickman Meredith
T:Eliza Edmunds Hewitt, 1903
T:Public Domain Courtesy of the Cyber Hymnal™
C:Isaac Hickman Meredith
Z:Public Domain
Z:Courtesy of the Cyber Hymnal™
%%score ( 1 2 ) ( 3 4 )
L:1/8
Q:1/4=95
M:6/8
K:Bb
V:1 treble 
V:2 treble 
V:3 bass 
V:4 bass 
V:1
 [Fd][Ec][DB] [DF]3 | [Fd][Ec][DB] [DF]3 | [DF][DG][B,D] [DF]2 [DB] | [EB]3 [EA]2 z | %4
w: 1.~Hap- py New Year!|Hap- py New Year!|Sing we our clos- ing|cho- rus;|
w: 2.~Won- der- ful love|falls from a- bove;|Walk in the light so|ten- der;|
w: 3.~Cur- tains of night|veil from our sight|Ev- ery un- known to-|mor- row;|
w: 4.~Hap- py New Year!|Je- sus is near,|This is the hope be-|fore us;|
 [Fe][Fd][Ec] [EA]3 | [Dc][DB][EG] [DF]3 | [CA][Fc][FA] [=EG]2 [EA] | [=EG]3 F2 z || %8
w: Peace and good will|fol- low us still,|Mer- cy is watch- ing|o’er us.|
w: Beau- ti- ful rays|cheer- ing the days,|Hap- pi- est praise we|ren- der.|
w: Heav- en- ly Friend,|guard and de- fend,|Keep us from sin and|sor- row.|
w: He will pro- vide,|save us and guide;|Joy- ful our clos- ing|chor- us.|
"^Refrain" F[FA][Ac] [Ae]3 | [Ae][Ad][Ac] [FB]3 | BAG ^F2 G | [DA]3 (D2 C) | [B,E][EG][GB] [Ge]3 | %13
w: |||||
w: Hap- py New Year!|Hap- py New Year!|Part- ing from one an-|o- ther, *|Sav- ior we pray,|
w: |||||
w: |||||
 [DF][FB][Fc] [Fd]3 | [Fd][Fc][FB] [EG]2 [FB] | [Ec]3 !fermata![DB]3 |] %16
w: |||
w: bright- en our way;|Lead us, dear El- der|Bro- ther.|
w: |||
w: |||
V:2
 x6 | x6 | x6 | x6 | x6 | x6 | x6 | x3 F2 x || F x5 | x6 | BAG ^F2 G | x3 D2 C | x6 | x6 | x6 | %15
 x6 |] %16
V:3
 [B,,B,][B,,B,][B,,B,] [B,,B,]3 | [B,,B,][B,,B,][B,,B,] [B,,B,]3 | %2
 [B,,B,][B,,B,][B,,F,] [B,,B,]2 [B,,F,] | (F,2 G,) F,2 z | [F,C][F,B,][F,A,] [F,C]3 | %5
 [B,,B,][B,,F,] (G,/A,/) [B,,B,]3 | [C,F,][C,A,][C,C] [C,B,]2 [C,C] | [C,B,]3 [F,A,]2 z || %8
 [F,A,][F,C][F,E] [F,C]3 | [F,C][F,F][F,E] [B,D]3 | B,A,G, ^F,2 G, | [D,^F,]3 [D,F,]2 z | %12
 [E,G,][E,B,][E,E] [E,B,]3 | [B,,B,][D,B,][F,A,] B,3 | [B,,B,][C,A,][D,B,] [E,B,]2 [D,B,] | %15
 [F,A,]3 !fermata![B,,B,]3 |] %16
V:4
 x6 | x6 | x6 | C,3 F,2 x | x6 | x2 B,, x3 | x6 | x6 || x6 | x6 | B,A,G, ^F,2 G, | x6 | x6 | %13
 x3 B,3 | x6 | x6 |] %16

